X:72
T:Pioneers March ThFife.72
B:Thompson, C. & Thompson, S., 'The Compleat Tutor for the Fife', London, c.1765-1780.
S:Digitised by National Library of Scotland at: https://archive.org/details/nlsmusic
Z:vmp Roger Hare, 2019.
M:6/8
L:1/8
Q:3/8=100
K:G
"^Ever so slightly edited by transcriber..."|: B/c/ | dcB cBA | G2 G G2 B/c/ | dcB cBA | G3 z z :|
|: "^NB1"E/F/ |G2 d !trill!d3 |G2 e !trill!e3 | G2 g fed | ed^c d3 | G2 d !trill!d3 | G2 e !trill!e3 |
G2 g fed |ed^c d2 B/=c/ | dcB cBA | G2 G G2 B/c/ | dcB cBA | G3 "^NB1"z z :|
N:NB1 Pick-up ('B/c/') and rests inserted at start and end of B music to make it 'scan' right.

